src/img/bgImage.svg

<svg xmlns="http://www.w3.org/2000/svg" width="823" height="720" fill="none"><g clip-path="url(#a)"><mask id="b" width="923" height="791" x="-72" y="-70" maskUnits="userSpaceOnUse" style="mask-type:alpha"><path fill="#fff" d="M-72-69.537h923V720H-72V-69.537Z"/></mask><g mask="url(#b)"><path fill="#E3E6E8" d="M438.52 827.956c90.339-1.302 177.879-43.522 248.915-106.363 51.346-45.475 96.323-104.083 114.371-174.739 18.145-70.655-4.729-130.891-53.566-179.731-45.17-45.042-110.704-48.623-161.085-86.067-36.676-27.242-61.577-85.091-104.334-96.269-39.186-10.311-75.379 9.333-107.422 36.901-32.044 27.567-57.813 49.166-89.085 77.71-25.19 23.009-53.566 41.351-83.872 54.158-55.304 23.443-120.452 31.366-158.865 81.834-29.052 38.313-35.036 94.425-22.103 142.613 12.934 48.189 42.757 88.781 77.696 120.147 91.111 81.943 223.145 131.543 339.35 129.806Z"/><path fill="#F3AF47" d="M677.5 587.735c-28.2 31.002-73.8 2.752-99.2-28.974-4.5-5.505-7.6-12.894-8.9-21.151-5.8-39.839 37.6-49.545 38.9-85.328.6-15.646-7.5-28.539-13.5-41.578-13.6-29.553-17.5-67.074-14.6-102.422 2.9-35.348 12-69.103 22.7-101.264 8.7-26.221 24.3-56.064 43.9-49.69 12.6 4.057 20.7 22.31 24.4 40.274 5 24.773 4.3 51.284.9 76.636-1.5 11.155-3.5 22.889-1.4 33.899 5.3 28.25 32.6 34.624 42.5 59.976 9.9 25.497-1.9 57.513-13.1 82.431-9.6 21.44-15.3 34.768-9.1 52.877 1.7 4.78 4 9.127 6.9 12.459 6.1 7.533 17.3 30.422-20.4 71.855Z"/><path fill="#7C4A0F" d="M640.1 230.342c0 8.837-6.1 498.206-6.1 498.206l24-1.304-17.9-496.902Z"/><path fill="#7C4A0F" d="m641.6 573.682-49.6-76.78 53.9 70.261c.9 1.014 1.3 2.753 1.1 4.346-.2 1.594-1 2.898-2.1 3.477-1.1.58-2.3.145-3.1-1.014l-.2-.29Zm-4.5-220.201L617 296.982l24.1 53.312c.8 1.014 1.1 2.608.7 3.912-.4 1.448-1.4 2.317-2.4 2.173-1.1-.145-1.9-1.159-2.2-2.753l-.1-.145Zm5.5 117.779L693 367.968l-45.5 108.073c-.9 2.028-2.7 2.752-4.1 1.448-1.4-1.304-1.8-3.911-1-5.939l.2-.29Z"/><path fill="#F8CD99" d="M183.5 677.409c-19.1 21.006-50 1.883-67.1-19.558-3-3.766-5.1-8.837-6-14.342-3.9-26.945 25.4-33.609 26.3-57.658.4-10.575-5.1-19.267-9.2-28.104-9.2-20.137-11.8-45.489-9.9-69.538 1.9-24.048 8.1-46.792 15.4-68.523 5.9-17.819 16.5-37.955 29.7-33.609 8.5 2.752 14 15.066 16.5 27.235 3.4 16.66 2.9 34.624.6 51.863-1 7.533-2.4 15.356-1 22.89 3.6 19.122 22.1 23.468 28.8 40.708 6.7 17.239-1.3 38.97-8.8 55.774-6.4 14.487-10.4 23.469-6.2 35.928 1.2 3.187 2.8 6.085 4.7 8.547 4.1 4.926 11.7 20.427-13.8 48.387Z"/><path fill="#7C6242" d="M156.8 429.972c0 6.374-6.1 313.207-6.1 313.207l17.6 2.173-11.5-315.38Z"/><path fill="#7C6242" d="m161.1 615.549 35.8-54.905-38.9 50.27c-.9 1.159-.9 3.187-.1 4.491.8 1.303 2.1 1.448 3.1.289l.1-.145Zm-6.9-95.903-14.6-41.867 17.4 39.549c.4 1.159.1 2.463-.6 3.187-.7.725-1.7.435-2.2-.579.1 0 0-.29 0-.29Z"/><path fill="#9C4F5F" d="m159.5 606.857 35.2-76.491-35.2 76.491Z"/></g></g><defs><clipPath id="a"><path fill="#fff" d="M0 0h823v720H0z"/></clipPath></defs></svg>

<svg width="823" height="720" viewBox="0 0 823 720" fill="none" xmlns="http://www.w3.org/2000/svg">
<g clip-path="url(#clip0_0_227)">
<mask id="mask0_0_227" style="mask-type:alpha" maskUnits="userSpaceOnUse" x="-72" y="-70" width="923" height="791">
<path d="M-72 -69.5371H851V720H-72V-69.5371Z" fill="white"/>
</mask>
<g mask="url(#mask0_0_227)">
<path d="M438.52 827.956C528.859 826.654 616.399 784.434 687.435 721.593C738.781 676.118 783.758 617.51 801.806 546.854C819.951 476.199 797.077 415.963 748.24 367.123C703.07 322.081 637.536 318.5 587.155 281.056C550.479 253.814 525.578 195.965 482.821 184.787C443.635 174.476 407.442 194.12 375.399 221.688C343.355 249.255 317.586 270.854 286.314 299.398C261.124 322.407 232.748 340.749 202.442 353.556C147.138 376.999 81.99 384.922 43.5766 435.39C14.5253 473.703 8.54128 529.815 21.4744 578.003C34.4076 626.192 64.231 666.784 99.1698 698.15C190.281 780.093 322.315 829.693 438.52 827.956Z" fill="#E3E6E8"/>
<path d="M677.5 587.735C649.3 618.737 603.7 590.487 578.3 558.761C573.8 553.256 570.7 545.867 569.4 537.61C563.6 497.771 607 488.065 608.3 452.282C608.9 436.636 600.8 423.743 594.8 410.704C581.2 381.151 577.3 343.63 580.2 308.282C583.1 272.934 592.2 239.179 602.9 207.018C611.6 180.797 627.2 150.954 646.8 157.328C659.4 161.385 667.5 179.638 671.2 197.602C676.2 222.375 675.5 248.886 672.1 274.238C670.6 285.393 668.6 297.127 670.7 308.137C676 336.387 703.3 342.761 713.2 368.113C723.1 393.61 711.3 425.626 700.1 450.544C690.5 471.984 684.8 485.312 691 503.421C692.7 508.201 695 512.548 697.9 515.88C704 523.413 715.2 546.302 677.5 587.735Z" fill="#F3AF47"/>
<path d="M640.1 230.342C640.1 239.179 634 728.548 634 728.548L658 727.244L640.1 230.342Z" fill="#7C4A0F"/>
<path d="M641.6 573.682L592 496.902L645.9 567.163C646.8 568.177 647.2 569.916 647 571.509C646.8 573.103 646 574.407 644.9 574.986C643.8 575.566 642.6 575.131 641.8 573.972L641.6 573.682ZM637.1 353.481L617 296.982L641.1 350.294C641.9 351.308 642.2 352.902 641.8 354.206C641.4 355.654 640.4 356.523 639.4 356.379C638.3 356.234 637.5 355.22 637.2 353.626L637.1 353.481ZM642.6 471.26L693 367.968L647.5 476.041C646.6 478.069 644.8 478.793 643.4 477.489C642 476.185 641.6 473.578 642.4 471.55L642.6 471.26Z" fill="#7C4A0F"/>
<path d="M183.5 677.409C164.4 698.415 133.5 679.292 116.4 657.851C113.4 654.085 111.3 649.014 110.4 643.509C106.5 616.564 135.8 609.9 136.7 585.851C137.1 575.276 131.6 566.584 127.5 557.747C118.3 537.61 115.7 512.258 117.6 488.209C119.5 464.161 125.7 441.417 133 419.686C138.9 401.867 149.5 381.731 162.7 386.077C171.2 388.829 176.7 401.143 179.2 413.312C182.6 429.972 182.1 447.936 179.8 465.175C178.8 472.708 177.4 480.531 178.8 488.065C182.4 507.187 200.9 511.533 207.6 528.773C214.3 546.012 206.3 567.743 198.8 584.547C192.4 599.034 188.4 608.016 192.6 620.475C193.8 623.662 195.4 626.56 197.3 629.022C201.4 633.948 209 649.449 183.5 677.409Z" fill="#F8CD99"/>
<path d="M156.8 429.972C156.8 436.346 150.7 743.179 150.7 743.179L168.3 745.352L156.8 429.972Z" fill="#7C6242"/>
<path d="M161.1 615.549L196.9 560.644L158 610.914C157.1 612.073 157.1 614.101 157.9 615.405C158.7 616.708 160 616.853 161 615.694L161.1 615.549ZM154.2 519.646L139.6 477.779L157 517.328C157.4 518.487 157.1 519.791 156.4 520.515C155.7 521.24 154.7 520.95 154.2 519.936C154.3 519.936 154.2 519.646 154.2 519.646Z" fill="#7C6242"/>
<path d="M159.5 606.857L194.7 530.366C194.7 530.366 159.5 606.857 159.5 606.857Z" fill="#9C4F5F"/>
</g>
</g>
<defs>
<clipPath id="clip0_0_227">
<rect width="823" height="720" fill="white"/>
</clipPath>
</defs>
</svg>
